svg/credit_card_remove.svg

<svg xmlns="http://www.w3.org/2000/svg" viewBox="0 0 24 24"><path d="M20 4H4a2 2 0 0 0-2 2v12a2 2 0 0 0 2 2h9.09a5.5 5.5 0 0 1-.09-1 6 6 0 0 1 6-6 5.9 5.9 0 0 1 3 .81V6a2 2 0 0 0-2-2m0 7H4V8h16m2.54 8.88L20.41 19l2.13 2.12-1.42 1.42L19 20.41l-2.12 2.13-1.42-1.42L17.59 19l-2.13-2.12 1.42-1.42L19 17.59l2.12-2.13Z"/></svg>

<?xml version="1.0" encoding="UTF-8"?><!DOCTYPE svg PUBLIC "-//W3C//DTD SVG 1.1//EN" "http://www.w3.org/Graphics/SVG/1.1/DTD/svg11.dtd"><svg xmlns="http://www.w3.org/2000/svg" xmlns:xlink="http://www.w3.org/1999/xlink" version="1.1" id="mdi-credit-card-remove" width="24" height="24" viewBox="0 0 24 24"><path d="M20 4H4A2 2 0 0 0 2 6V18A2 2 0 0 0 4 20H13.09A5.47 5.47 0 0 1 13 19A6 6 0 0 1 19 13A5.88 5.88 0 0 1 22 13.81V6A2 2 0 0 0 20 4M20 11H4V8H20M22.54 16.88L20.41 19L22.54 21.12L21.12 22.54L19 20.41L16.88 22.54L15.46 21.12L17.59 19L15.46 16.88L16.88 15.46L19 17.59L21.12 15.46Z" /></svg>
